Numix-GalliumOS/48/actions/mail-copy.svg

<?xml version="1.0" encoding="UTF-8" standalone="no"?>
<svg
   xmlns:dc="http://purl.org/dc/elements/1.1/"
   xmlns:cc="http://creativecommons.org/ns#"
   xmlns:rdf="http://www.w3.org/1999/02/22-rdf-syntax-ns#"
   xmlns:svg="http://www.w3.org/2000/svg"
   xmlns="http://www.w3.org/2000/svg"
   xmlns:sodipodi="http://sodipodi.sourceforge.net/DTD/sodipodi-0.dtd"
   xmlns:inkscape="http://www.inkscape.org/namespaces/inkscape"
   width="48"
   height="48"
   viewBox="0 0 48 48"
   id="svg2"
   version="1.1"
   inkscape:version="0.91 r"
   sodipodi:docname="mail-copy.svg">
  <metadata
     id="metadata28">
    <rdf:RDF>
      <cc:Work
         rdf:about="">
        <dc:format>image/svg+xml</dc:format>
        <dc:type
           rdf:resource="http://purl.org/dc/dcmitype/StillImage" />
      </cc:Work>
    </rdf:RDF>
  </metadata>
  <defs
     id="defs26" />
  <sodipodi:namedview
     pagecolor="#ffffff"
     bordercolor="#666666"
     borderopacity="1"
     objecttolerance="10"
     gridtolerance="10"
     guidetolerance="10"
     inkscape:pageopacity="0"
     inkscape:pageshadow="2"
     inkscape:window-width="1920"
     inkscape:window-height="1056"
     id="namedview24"
     showgrid="true"
     inkscape:zoom="13.906433"
     inkscape:cx="27.093969"
     inkscape:cy="21.25459"
     inkscape:window-x="0"
     inkscape:window-y="24"
     inkscape:window-maximized="1"
     inkscape:current-layer="svg2">
    <inkscape:grid
       type="xygrid"
       id="grid4186" />
  </sodipodi:namedview>
  <g
     transform="matrix(0.77272727,0,0,0.78125,0.4545455,-8.9375)"
     style="fill:#1d699f;fill-opacity:1"
     id="g4-7">
    <path
       inkscape:connector-curvature="0"
       d="m 6,14 c -4,0 -4,0 -4,4 l 0,24 c 0,4 0,4 4,4 l 36,0 c 4,0 4,0 4,-4 0,-8.851562 0,-18.882812 0,-24 0,-4 0,-4 -4,-4 z"
       id="path6-5"
       style="fill:#1d699f;fill-opacity:1" />
    <path
       inkscape:connector-curvature="0"
       d="m 6,46 36,0 c 4,0 4,0 4,-4 L 46,18 2,42 c 0,4 0,4 4,4 z"
       id="path8-7"
       style="fill:#1d699f;fill-opacity:1" />
  </g>
  <path
     inkscape:connector-curvature="0"
     style="fill:#000000;fill-opacity:0.10199998"
     d="m 5.090909,27 27.818184,0 c 3.090906,0 3.090906,0 3.090906,-3.124999 l 0,-18.7500066 L 2,23.875001 C 2,27 2,27 5.090909,27 Z"
     id="path10-4" />
  <path
     inkscape:connector-curvature="0"
     style="fill:#1d699f;fill-opacity:1"
     d="M 32.909093,27 5.090909,27 C 2,27 2,27 2,23.875001 L 2,5.1249944 35.999999,23.875001 C 35.999999,27 35.999999,27 32.909093,27 Z"
     id="path12-3" />
  <g
     style="fill:#268bd2"
     id="g4"
     transform="matrix(0.77272727,0,0,0.78125,10.454545,10.0625)">
    <path
       d="m 6,14 c -4,0 -4,0 -4,4 l 0,24 c 0,4 0,4 4,4 l 36,0 c 4,0 4,0 4,-4 0,-8.851562 0,-18.882812 0,-24 0,-4 0,-4 -4,-4 z"
       id="path6"
       inkscape:connector-curvature="0" />
    <path
       d="m 6,46 36,0 c 4,0 4,0 4,-4 L 46,18 2,42 c 0,4 0,4 4,4 z"
       id="path8"
       inkscape:connector-curvature="0" />
  </g>
  <path
     style="fill:#000000;fill-opacity:0.10199998"
     d="m 15.090909,46 27.818182,0 C 46,46 46,46 46,42.875 l 0,-18.75 -34,18.75 C 12,46 12,46 15.090909,46 Z"
     id="path10"
     inkscape:connector-curvature="0" />
  <path
     style="fill:#268bd2"
     d="M 42.909091,46 15.090909,46 C 12,46 12,46 12,42.875 l 0,-18.75 34,18.75 C 46,46 46,46 42.909091,46 Z"
     id="path12"
     inkscape:connector-curvature="0" />
  <path
     style="fill:#ffffff;fill-opacity:0.10199998"
     d="M 12,24.125 29,33.5 46,24.125 C 46,21 46,21 42.909091,21 L 15.090909,21 C 12,21 12,21 12,24.125 Z"
     id="path14"
     inkscape:connector-curvature="0" />
  <path
     inkscape:connector-curvature="0"
     style="fill:#ffffff;fill-opacity:0.10199998"
     d="M 2,5.1249944 19,14.500007 35.999999,5.1249944 c 0,-3.124994 0,-3.124994 -3.090906,-3.124994 l -27.818184,0 C 2,2.0000004 2,2.0000004 2,5.1249944 Z"
     id="path14-4" />
</svg>

<svg xmlns="http://www.w3.org/2000/svg" viewBox="0 0 48 48">
 <g transform="matrix(0.77272727,0,0,0.78125,0.4545455,-8.9375)" style="fill:#1d699f;fill-opacity:1">
  <path d="m 6 14 c -4 0 -4 0 -4 4 l 0 24 c 0 4 0 4 4 4 l 36 0 c 4 0 4 0 4 -4 0 -8.852 0 -18.883 0 -24 0 -4 0 -4 -4 -4 z"/>
  <path d="m 6,46 36,0 c 4,0 4,0 4,-4 L 46,18 2,42 c 0,4 0,4 4,4 z"/>
 </g>
 <path d="m 5.091 27 27.818 0 c 3.091 0 3.091 0 3.091 -3.125 l 0 -18.75 l -34 18.75 c 0 3.125 0 3.125 3.091 3.125" style="fill:#000;fill-opacity:0.102"/>
 <path d="m 32.909 27 -27.818 0 c -3.091 0 -3.091 0 -3.091 -3.125 l 0 -18.75 34 18.75 c 0 3.125 0 3.125 -3.091 3.125" style="fill:#1d699f;fill-opacity:1"/>
 <g transform="matrix(0.77272727,0,0,0.78125,10.454545,10.0625)" style="fill:#268bd2">
  <path d="m 6 14 c -4 0 -4 0 -4 4 l 0 24 c 0 4 0 4 4 4 l 36 0 c 4 0 4 0 4 -4 0 -8.852 0 -18.883 0 -24 0 -4 0 -4 -4 -4 z"/>
  <path d="m 6,46 36,0 c 4,0 4,0 4,-4 L 46,18 2,42 c 0,4 0,4 4,4 z"/>
 </g>
 <path d="m 15.090909,46 27.818182,0 C 46,46 46,46 46,42.875 l 0,-18.75 -34,18.75 C 12,46 12,46 15.090909,46 Z" style="fill:#000;fill-opacity:0.102"/>
 <path d="M 42.909091,46 15.090909,46 C 12,46 12,46 12,42.875 l 0,-18.75 34,18.75 C 46,46 46,46 42.909091,46 Z" style="fill:#268bd2"/>
 <path d="M 12,24.125 29,33.5 46,24.125 C 46,21 46,21 42.909091,21 L 15.090909,21 C 12,21 12,21 12,24.125 Z" style="fill:#fff;fill-opacity:0.102"/>
 <path d="m 2 5.125 17 9.375 17 -9.375 c 0 -3.125 0 -3.125 -3.091 -3.125 l -27.818 0 c -3.091 0 -3.091 0 -3.091 3.125" style="fill:#fff;fill-opacity:0.102"/>
</svg>
